vendor/shopware/storefront/Resources/app/storefront/dist/assets/icon/default/editor-media.svg

<svg xmlns="http://www.w3.org/2000/svg" width="12" height="12" viewBox="0 0 12 12">
  <path fill="#758CA3" fill-rule="evenodd" d="M12,9.98836208 C12.0000917,9.99683336 12.0000762,10.0053027 11.9999536,10.0137679 C11.9925498,11.1120006 11.0999766,12 10,12 L4.00796654,12 C4.00223245,12.0000491 3.99649759,12.0000491 3.99076204,12 L2,12 C0.8954305,12 0,11.1045695 0,10 L0,2 C-2.22044605e-16,0.8954305 0.8954305,0 2,0 L10,0 C11.1045695,-2.22044605e-16 12,0.8954305 12,2 L12,9.98836208 Z M10,7 L10,2 L2,2 L2,10 L3.51937515,10 L6.41275828,6.3832711 C7.10277737,5.52074723 8.36136212,5.38090448 9.22388599,6.07092357 C9.35553548,6.17624317 9.47333973,6.29778631 9.57449589,6.43266119 L10,7 Z M9.75,10 L7.97449589,7.63266119 L6.08062485,10 L9.75,10 Z M4.5,6 C3.67157288,6 3,5.32842712 3,4.5 C3,3.67157288 3.67157288,3 4.5,3 C5.32842712,3 6,3.67157288 6,4.5 C6,5.32842712 5.32842712,6 4.5,6 Z"/>
</svg>

<svg xmlns="http://www.w3.org/2000/svg" width="12" height="12" viewBox="0 0 12 12"><path fill="#758CA3" fill-rule="evenodd" d="M12 9.9884v.0254C11.9925 11.112 11.1 12 10 12H2c-1.1046 0-2-.8954-2-2V2C0 .8954.8954 0 2 0h8c1.1046 0 2 .8954 2 2v7.9884zM10 7V2H2v8h1.5194l2.8934-3.6167c.69-.8626 1.9486-1.0024 2.811-.3124a2 2 0 0 1 .3507.3618L10 7zm-.25 3L7.9745 7.6327 6.0806 10H9.75zM4.5 6C3.6716 6 3 5.3284 3 4.5S3.6716 3 4.5 3 6 3.6716 6 4.5 5.3284 6 4.5 6z"/></svg>
